svgs/duotone/faucet-drip.svg

<svg xmlns="http://www.w3.org/2000/svg" viewBox="0 0 512 512"><!-- Font Awesome Pro 6.0.0-alpha2 by @fontawesome - https://fontawesome.com License - https://fontawesome.com/license (Commercial License) --><defs><style>.fa-secondary{opacity:.4}</style></defs><path d="M352 192H313.6C297.6 179.199 278.4 169.6 256 163.199V115.199L224 112L192 115.199V163.199C169.6 169.6 150.4 179.199 134.4 192H16C6.4 192 0 198.4 0 208V304C0 313.6 6.4 320 16 320H108.801C128 358.4 172.801 384 224 384S320 358.4 339.199 320H352C371.199 320 384 332.799 384 352C384 371.199 396.801 384 416 384H480C499.199 384 512 371.199 512 352C512 262.4 441.6 192 352 192ZM256 44.799V16C256 6.4 249.6 0 240 0H208C198.4 0 192 6.4 192 16V44.799L224 48L256 44.799Z" class="fa-secondary"/><path d="M364.801 32L224 48L83.199 32C73.6 32 64 38.4 64 48V76.799C64 89.6 73.6 96 83.199 96L224 80L364.801 96C374.4 96 384 89.6 384 80V48C384 38.4 374.4 32 364.801 32ZM448 416C448 416 416 460.799 416 480C416 499.199 428.801 512 448 512S480 499.199 480 480C480 460.799 448 416 448 416Z" class="fa-primary"/></svg>

<svg xmlns="http://www.w3.org/2000/svg" viewBox="0 0 512 512"><!--! Font Awesome Pro 6.3.0 by @fontawesome - https://fontawesome.com License - https://fontawesome.com/license (Commercial License) Copyright 2023 Fonticons, Inc. --><defs><style>.fa-secondary{opacity:.4}</style></defs><path class="fa-primary" d="M364.8 32L224 48L83.2 32C73.6 32 64 38.4 64 48v28.8C64 89.6 73.6 96 83.2 96L224 80L364.8 96C374.4 96 384 89.6 384 80v-32C384 38.4 374.4 32 364.8 32zM448 416c0 0-32 44.8-32 64c0 19.2 12.8 32 32 32s32-12.8 32-32C480 460.8 448 416 448 416z"/><path class="fa-secondary" d="M352 192h-38.54c-16-12.8-35.06-22.4-57.46-28.8v-48L224 112L192 115.2v48C169.6 169.6 150.5 179.2 134.5 192H16C6.4 192 0 198.4 0 208v96C0 313.6 6.4 320 16 320h92.78C127.1 358.4 172.8 384 224 384s96.02-25.6 115.2-64H352c19.2 0 32 12.71 32 31.91C384 371.1 396.8 384 416 384h64c19.2 0 32-12.8 32-32C512 262.4 441.6 192 352 192zM256 44.8V16C256 6.4 249.6 0 240 0h-32C198.4 0 192 6.4 192 16v28.8L224 48L256 44.8z"/></svg>
